!!!COM: Bazylik Cyprian
!!!CDT: 1535–after 1591
!!!ODT: ~1558
!!!LYR: Lubelczyk Jakub
!!!OTL: Pyesń o nyebespieczeństwye żywota człowyeczego. J.L.
!!!PPR: Siebeneicher Mateusz
!!!PDT: 1558
!!!PPP: Kraków
!!!ENC: dr Marcin Konik
!!!END: 2015-03-12
!!!YOO: Polish National Library, BN-SD-XVI-O-267
!!title: @{CDT}, @{OTL}, ed. @{ENC}
!!!YEM: Creative Commons CC/BY/NC/SA 4.0
!!!EED: Marcin Konik
!!!ONB: Encoded in vim by Marcin Konik
!!!CharacterEncoding: utf-8
!!!RDF**kern: l=long note in original notation
!!!RDF**kern: i=editorial accidental
!!muse2ps: z14jc180F
**kern	**kern	**kern	**kern
*staff4	*staff3	*staff2	*staff1
*I"Bas	*I"Tenor	*I"Alt	*I"Discant
*clefF4	*clefG2v8	*clefG2	*clefG2
*oclefF4	*oclefC4	*oclefC3	*oclefC1
*k[]	*k[]	*k[]	*k[]
*met(c|)	*met(c|)	*met(c|)	*met(c|)
*M2/2	*M2/2	*M2/2	*M2/2
=1-	=1-	=1-	=1-
1AA	1E	1A	1e
=2	=2	=2	=2
2E	2G	2B	2e
2E	2G	2c	2g
=3	=3	=3	=3
2D	2A	2d	2f
2E	2G	[2c	[2e
=4	=4	=4	=4
1F	1A	4c]	2e]
.	.	4B	.
.	.	2A	2d
=5	=5	=5	=5
2E	2B	2G	2e
2E	2c	2g	2e
=6	=6	=6	=6
1D	2.d	1f	1a
.	4c	.	.
=7	=7	=7	=7
2E	2B	2e	2g
2F	2A	2d	[2a
=8	=8	=8	=8
1E	1B	1e	2a]
.	.	.	2g#i
=9	=9	=9	=9
1AA	1A	1e	1a
=10	=10	=10	=10
2r	2r	2r	2r
2A	2c	2e	2a
=11	=11	=11	=11
2D	2A	2f	2a
2F	2A	2d	2a
=12	=12	=12	=12
2E	2B	2e	2g
2C	[2c	2e	2e
=13	=13	=13	=13
1D	2c]	1d	1f
.	2B	.	.
=14	=14	=14	=14
2C	2c	2g	2e
2F	2A	2f	2a
=15	=15	=15	=15
2G	2B	2d	2g
[2F	[2c	[2f	[2a
=16	=16	=16	=16
2F]	2c]	2f]	2a]
2G	2B	2d	[2g
=17	=17	=17	=17
1D	1A	1d	2g]
.	.	.	2f#i
=18	=18	=18	=18
2GG	2G	2B	2g
2G	2G	2d	2g
=19	=19	=19	=19
2F	2c	2f	2a
2A	2c	2e	2a
=20	=20	=20	=20
2G	2d	2g	2b
2C	2e	2g	[2cc
=21	=21	=21	=21
1G	1d	1g	2cc]
.	.	.	2b
=22	=22	=22	=22
2C	2c	2e	2cc
2F	2A	2f	2cc
=23	=23	=23	=23
2G	2B	2d	2b
2E	2c	2e	2g
=24	=24	=24	=24
1D	2.d	1f	2b
.	.	.	2a
.	4c	.	.
=25	=25	=25	=25
2E	2B	2e	2g
2F	2A	2d	[2a
=26	=26	=26	=26
1E	1B	1e	2a]
.	.	.	2g#i
=27	=27	=27	=27
1AA	1A	1e	1a
==	==	==	==
*-	*-	*-	*-
